X: 2048
T: Minuet
%R: minuet
B: Henry Playford "Apollo's Banquet", London 1687 (5th Edition)
F: https://archive.org/details/apollosbanquetco01rugg
Z: 2017 John Chambers <jc:trillian.mit.edu>
M: 3/2
L: 1/8
K: Dm
% - - - - - - - - - -
|:\
d2f2d2 a4f2 | g2a4 f3(e/f/)d2 |\
d2f2d2 a4e2 | f2f3e e6 ::\
e2f2d2 g4e2 | ^c2d3e e4 A2 |\
e2f2d2 g2e2^c2 | (de)e3d d6 |]
% - - - - - - - - - -

%%sep 1 1 500
%%sep 1 1 500

